X:1
T:The House Carpenter
M:4/4
L:1/4
K:E
 z2 z B,| ED/2-E/2 F A| GF/2-D/2 B,3/2 G/2| B B/2G/2 A c| B3 E/2G/2|\
 B3/2 G/2 A B/2c/2| BG/2-E/2 F B,3/4 B,/4| EF/4-G/4 A/2 G F| E3 z|\
